X: 677
T: After The Morning
R: jig
M: 6/8
K: Dmajor
F2 G AGF|GBe edc|Aee edc|Age fdA|
F2 G AGF|GBe edc|Afg edc|1 AGE A2G:|2 AGE A2D||
Bcd edc|Acd F2 d|B3 EFG|Add DFA|
Bcd edc|Acd FGA|Bfg edc|1 AGE A2d:|2 Aed cAG||

